X: 1
T: Buv\vcansko
O: Macedonia
N: Start slow, around 92-100, and slowly speed up to 112 or faster.
Z: 1998 by John Chambers <jc@trillian.mit.edu> http://trillian.mit.edu/~jc/music/
M: 4/4
L: 1/8
K: EDorian
|: DE E>F GA GF | GA BA AG GF | GA BA AG GF | G/F/E FD E2 E2 :|
|: AB {A}BB ~B2 B2 | c/d/e d/c/B AG G2 | c/d/e d/c/B AG G>F | G/F/E FD E2 E2 :|

%%sep 1 1 200

%%partsspace 0

